X:1
T:Newt says goodbye to Tina From Fantastic beasts and where to find them
T:Newt says goodbye to Tina From Fantastic Beasts and Where to Find them
T:James Newton Howard
T:Samantha Padron
T:Samantha Padron
C:James Newton Howard
Z:Samantha Padron
%%score { 1 | 2 }
L:1/8
Q:1/4=54
M:4/4
K:C
V:1 bass nm="Piano" snm="Pno."
V:2 bass 
V:1
!p! CDEC B,4 | CDEC B,4 | B,3 A, G,4 |!>(! B,3 A, E,2 !fermata!D,2!>)! | CDEC B,4 | CDEC B,4 | %6
 CDEC B,3 B, | B,2 A,G, G,2 z2 | B,2 A,G, D,2 (B,,2 | E,3) E, A,2 F,G, |!<(! A,3 E, F,E,D,C,!<)! | %11
 G,2 E,G, G,3 E, |!p! C,4 F,2 G,2 | A,2 E,G, (A,F,)G,F, | G,2 E,A, (C,2 C,2) | D,3 C, D,3 C, | %16
 (C,4 B,,4) | CDEC B,2 G,B, | CDEC B,2 G,B, | B,2 A,G, G,2 C,G, | A,2 D6 | C2 G6 | C2 G6 | %23
 G,3 C C2 B,2 | G,3 C C2 B,2 | !fermata!G,8 | %26
[K:Bb][K:bass][Q:1/4=120]"^Swing"!<(! z2 .C, z3 .D, z!<)! | z2 .E, z3 .F, z | %28
!mp! z C z G, C2 z G, | CG, z C2 _A,2 z | z C z G, =B,G,B,C | z G,^F,G, G,4 | %32
!mf! z C z G, C2 z G, | CG, z C2 _A,2 z | z C z2 =B,G,B,C | CG, z2 z3 E | GB, z A, FA, z2 | %37
 D=B, z E3 z E, | C_A, z2 G, B,3 | A,F, z =B,2 G,3 | G,CEC EC z E | z C2 E2 D3 | z E C2 =B,2 B,C | %43
 CE,F,_G, =G,_G,F, z |!<(! z ECG, =B,G,B,C!<)! |!f! C6 z E | GPECG, _G, F,2 =G, | ECG,E, _G,G, z2 | %48
!>(! z ECG, =B,2 F,C!>)! | z E,F,_G, =F,4 |"^Rit."!mp! G,8 |[Q:1/4=83]!p! C3 E C B,2 F, | G,4 A,4 | %53
 C3 E C B,2 F, | G,8 | C3 E C C2 F, | G,4 A,4 | G3 E C2 E2 | F2 G6 | C8 |] %60
V:2
 C,,G,, C,2 E,,B,, E,2 | C,,G,, C,2 E,,B,, E,2 | F,,C, F,2 C,,G,, E,2 | %3
 F,,A,, C,2 C,,G,, !fermata!G,,,2 | C,,G,, C,2 E,,B,, E,2 | C,,G,, E,2 E,,B,, G,2 | %6
 C,,G,, C,2 E,,B,, E,2 | F,,C, F,2 C,,G,, C,2 | F,,A,, C,2 G,,D, G,2 | A,,E, A,2 F,,C, F,2 | %10
 A,,E, A,2 F,,C, F,2 | C,,G,,C,G,, E,,B,, E,2 | F,,C,F,C, G,C,F,A,, | A,,E, A,2 F,,A,, C,2 | %14
 E,,B,, E,2 (A,,2 A,,2) | D,,A,, F,6 | G,,8 | C,,G,, C,2 E,,B,, E,2 | C,,G,, C,2 E,,B,, E,2 | %19
 F,,C, F,2 C,,G,, C,2 | D,,A,,^F,D, =F,D,A,,D, | C,,G,,E,C, B,,B,,E,B,, | F,,C,F,C, D,4 | %23
 C,,2 E,,4 G,,2 | C,,2 E,,4 G,,2 | !fermata!C,8 |[K:Bb] C,,2 z2 F,,2 z2 | C,,2 z2 F,,2 z2 | %28
 C,,2 z2 F,,2 z2 | E,,2 z2 F,,2 z2 | C,,2 z2 G,,2 z2 | C,2 z2 G,,F,E,D, | C,,2 z2 F,,2 z2 | %33
 E,,2 z2 F,,2 z2 | C,,2 z2 G,,2 z2 | C,,2 z2 C,,2 z2 | E,,2 z2 D,,2 z2 | G,,2 z2 C,,2 z2 | %38
 _A,,2 z2 E,,2 z2 | F,,2 z2 G,,2 z2 | C,,2 z2 E,,2 z2 | F,,2 z2 G,,2 z2 | C,,2 z2 G,,2 z2 | %43
 C,,2 z2 G,,2 z2 | C,,2 z2 G,,2 z2 | C,,2 z6 | C,,2 z2 D,,2 z2 | C,,2 z2 _A,,2 z2 | %48
 C,,2 z2 G,,2 z2 | C,,4 D,,4 | F,,8 |[K:bass] C,,4 B,,,4 | B,,,4 C,,4 | G,,,4 E,,4 | E,,4 B,,4 | %55
 E,,4 B,,,4 | B,,,4 C,,4 |"^rit." E,,G,,B,, G,,3 G,,2 | C,2 =B,,6 | C,,8 |] %60

